X:1
T:20 Mélodies
T:Aubade-Habanera
T:20 Mélodies
T:2. Aubade-Habanera
T:Holmès, Augusta
T:(Holmès)
T:OpenScore (CC0)
T:OpenScore (CC0)
T:OpenScore (CC0)
T:OpenScore (CC0)
T:OpenScore (CC0)
C:Augusta Holmès
Z:Augusta Holmès
Z:OpenScore (CC0)
%%score 1 { ( 2 5 8 ) | ( 3 4 6 7 ) }
L:1/8
Q:1/2=63
M:2/2
K:C
V:1 treble nm="Chant\nVoice"
V:2 treble nm="Piano"
V:5 treble 
V:8 treble 
V:3 bass 
V:4 bass 
V:6 bass 
V:7 bass 
V:1
"^Andantino" z8 | z8 | z8 | z8 | z8 | z8 | z8 | z8 | z8 | z8 | z8 | z8 | z8 | z8 | z8 | z8 | z8 | %17
w: |||||||||||||||||
 z8 | z8 | z8 |"^CHANT" z8 | z8 | z8 | z8 |!p! (3E2 ^D2 E2 G2 (G2 | (3E2) ^D2 E2 G2 (G2 | %26
w: |||||||Al- gue des grè- ves,|Lys de mes rê- ves,|
 (3E2) ^D2 E2 A2 A2 |{/A} F8 | (3F2 E2 F2 A2 (A2 | (3F2) E2 F2 A2 (A2 | (3F2) E2 F2 B2 B2 | %31
w: Ro- se de mon jar-|din,|Fleur qui som- meil- les|Loin des a- beil- les|Sous l'or et le sa-|
{/B} E8 |"^crescendo" (3_A2 =G2 A2 _c2 c2 | (3=A2 ^G2 A2 ^c2 c2 | (3=B2 ^A2 B2 d2 d2 | (c4 e2) z2 | %36
w: tin,|Mu- guet si ten- dre,|Qu'A- vril va ren- dre|Aux ver- do- yants loi-|sirs, _|
!>(! (3f2 e2 d2 F2 A2 | (3e2 d2 c2 E2 G2!>)! |!p! (3G2 F2 E2 B,2 D2 | C4- C2 z2 | %40
w: En- tends, ô Rei- ne,|Ma voix loin- tai- ne,|Qui chan- te les Dé-|sirs. _|
!p! (3D2 E2 F2 G2 A2 |({/A} E4 G4) |!f! (3^F2 G2 A2 B2 c2 |({/c} G4 B4) | %44
w: Sous u- ne toi- son|blon- de,|Grands yeux, cou- leur de|l'on- de,|
!<(! (3A2 B2 c2!<)! d2!>(! (e2 |!<(! (3B2)!>)! c2 d2 e2!>(! (^f2!<)!!>)! | %46
w: Dor- mez, dor- mez! Vous|ê- tes ai- més Plus|
!<(! (3c2) d2 e2 (^f2 g2-)!<)! |!>(! (3g2 =f2 B2 A2!>)! G2 |!p!!<(! (3D2 E2 F2 G2!<)! A2 | %49
w: que les Sa- phirs _|_ de Gol- con- de|Lè- vres qu'A- mour as-|
{/A} E4 G4 |!f! (3^F2 G2 A2 B2 c2 |{/c} G4 B4 |!<(! (3A2 B2 c2 d2 (e2 | (3(B2) c2) d2 e2 (=f2!<)! | %54
w: siè- ge,|Seins de pourpre et de|nei- ge,|O bras si doux, Ren-|dor- * mez- vous! L'Au-|
 (3c2) B2 c2 _e2 e2 |"^dim." (3B2 ^A2 B2 d2 d2 | (3A2 ^G2 A2 c2 c2 | (3G2 ^F2 G2 B2 B2 | %58
w: * be cru- el- le|Chas- se de l'ai- le|La tour- te- rel- le|De la tou- rel- le|
 (3F2 E2 F2"^rall."[Q:1/4=100] A z!pp! (A2 |"^a Tempo"[Q:1/4=126] (3E2) ^D2 E2 G2 G2 | %60
w: Vers les bois roux... Je|veux, * Maî- tres- se,|
 (3E2 ^D2 E2 G2 G2 | (3E2 ^D2 E2 A2 A2 |{/A} F8 | (3F2 E2 F2 A2 A2 | (3F2 E2 F2 A2 A2 | %65
w: U- ne ca- res- se|Tout en- dor- mie en-|cor,|Et la sur- pri- se|De l'âme ex- qui- se|
 (3F2 E2 F2 B2 B2 |{/B} E8 |"^crescendo" (3_A2 G2 A2 _c2 c2 | (3=A2 ^G2 A2 ^c2 c2 | %69
w: Per- due aux son- ges|d'or,|Et que l'Au- ro- re|Rou- gisse en- co- re|
 (3=B2 ^A2 B2 =d2 d2 |!<(! (c4!<)! e4) | (3f2 e2 d2 (F2 A2) | (3e2 d2 c2 (E2 G2) | %73
w: En te mon- trant au|Jour, _|Nei- geuse et ro- se,|Lys, Algue et Ro- se,|
!p! (3B2 A2 G2 A2 G2- |!<(! (3G2 A2 G2!<)!!>(! (A2 G2)!>)! |!f! (3f2 e2 d2 (F2 A2) | %76
w: Où se re- po- se|_ mon a- mour, _|Pour moi pa- ré- e,|
 (3e2 d2 c2 (E2 G2) | (3B2 A2 G2"^rall."[Q:1/4=100] (B,2[Q:1/4=80] D2) | %78
w: A moi li- vré- e|Sans voile et sans re-|
"^a Tempo"[Q:1/4=126] C4- C2 z2 | z8 | z8 | z8 | z8 | z8 | z8 | z8 | z8 |] %87
w: tour! _|||||||||
V:2
!mf! z4 .[G,CEG]2 .[G,CE]2 |"_dim." z4 .[G,CEG]2 .[G,CE]2 | z4 .[G,CEG]2 .[G,CE]2 | %3
 z4 .[G,CEG]2 .[G,CE]2 |!p! (g8 | e2 de c2 GA |!<(! E2 GA c2 e2)!<)! | %7
!mf! !arpeggio![Bfa]4- [Bfa]2 z2 | z4!pp!({a!3!d')a} (f2 g2 |{/f} b4)({a!3!d')a} (f2 g2 | %10
{/f} b4)({a!3!d')a} (f2 g2) |{/b} e8 |!f!({/_B} _b8 | e2 de _B2 AB | E2 _Bc e2) !arpeggio![B_b]2 | %15
!>(!({A^c)g} [Aa]8!>)! |!mp! z4"_M.G."({=c'!3!a'c')} (e2 .[^fe']) z | %17
 z4({g!3!e')g} (c2 !arpeggio!.[ec']) z | z4!<(!({f!3!b)f} (A2 !arpeggio!.[Bf])!<)! z | %19
!>(!{/A} (3.[ce]2 .[Gce]2 .[Ace]2 (3.[Gce]2 .[Ace]2 .[Gce]2!>)! | %20
 z4!pp!({c'!3!a')c'} (e2 .[^fe']) z | z4({g!3!e')g} (c2 !arpeggio![ec']2) | %22
 z4(({f!3!b)f} A2 !arpeggio![Bf]2 | !arpeggio![ce]4-) [ce]2 z2 |!pp! z4 .[ceg]2 .[cea]2 | %25
 z4 .[egb]2 .[egc']2 | z4 .[egd']2 .[ege']2 | z4 .[fbe']2 .[fbf']2 | %28
 z4!8va(! .[fbf']2 .[gbg']2!8va)! |!8va(! z4 .[gbf'g']2 .[af'a']2 | z4 .[af'a']2 .[bf'b']2 | %31
 z4 .[be'b']2 .[c'e'c'']2!8va)! |!p! z4"_M.G.""_crescendo" .[_c_f_a]2 .[_dfa]2 | %33
 z4 !tenuto!.[^c^f=a]2 !tenuto!.[^dfa]2 | z4 .[e^gb]2 .[fgb]2 | z4 .[^gc'e']2 .[ac'e']2 | %36
 z4!>(! .[fae']2 .[fad']2 | z4 .[egd']2!>)! .[egc']2 |!p! z4 .[Bfa]2 .[Bfg]2 | z4 .[cea]2 .[ceg]2 | %40
!p! (3D2 E2 F2 !^!G2 !^!A2 | !^!E2 z2({g!3!e')g} e2- e z | (3^F2!f! G2 A2 !^!B2 !^!c2 | %43
 !^!G2 z2!pp!({b!3!g')b} g2- g z | %44
!pp!!8va(! (3.[aa']2"_crescendo" .[bb']2 .[c'c'']2"_M.G." .[d'd'']2 .[e'e'']2 | %45
 (3.[bb']2 .[c'c'']2 .[d'd'']2 .[e'e'']2 .[^f'^f'']2 | %46
 (3.[c'c'']2 .[d'd'']2 .[e'e'']2 [^f'^f''] z !tenuto![g'g'']2- | %47
"_dim." (3.[g'g'']2 .[=f'=f'']2 .[bb']2 .[aa']2 .[gg']2!8va)! |!p! (3D2!<(! E2 F2 !^!G2!<)! !^!A2 | %49
 !^!E2 z2!pp!({g!3!e')g} e2- e z |!f! (3^F2 G2 A2 !^!B2 !^!c2 | !^!G2 z2!pp!({b!3!g')b} g2- g z | %52
"_cresc."!8va(! (3(.[aa']2 .[bb']2 .[c'c'']2)"_M.G." .[d'd'']2 .[e'e'']2 | %53
 (3(.[bb']2 .[c'c'']2 .[d'd'']2) .[e'e'']2 .[=f'=f'']!8va)! x | %54
 z4"_M.G." !arpeggio!.[c_e^fac'] z !arpeggio!.[efa_e'] z | %55
 z4 !arpeggio!.[df_ab] z !arpeggio!.[dfad'] z | z4 !arpeggio!.[c_e^fa] z !arpeggio!.[cefc'] z | %57
 z4 !arpeggio!.[Bdfg] z !arpeggio!.[dfad'] z | %58
 z4!pp!"_rall." !arpeggio!.[ABfa] z !arpeggio!.[abf'a'] z |"^a Tempo"!pp!(({Gc)e} g8 | %60
 e2 de c2 GA |!<(! E2 GA c2 e2!<)! |!pp! !arpeggio![Bfa]4-) [Bfa]2 z2 |!pp! z4({a!3!d')a} (f2 g2 | %64
{/f} b4)({a!3!d')a} (f2 g2 |{/f} b4)({a!3!d')a} (f2 g2 |{/b)} e8 |!p!{/_c} (_c'4"_M.G." _a2 _ga | %68
!<(! _d4 _e4)!<)! |!f!{/=e} (=d'4 ^g2 ^fg |!>(! a2) (bc' e2 ^g!>)!a | %71
!p! d2-) d z({d'!3!a')d'} (f2 !arpeggio!.[af']) z | z4({g!3!e')g} (c2 !arpeggio!.[ec']) z | %73
 z4({f!3!b)f} A2 !arpeggio![Bf]2- | (3(.[Bf]2 .[Ace]2 .[Gce]2) !tenuto![Ace]2 !tenuto![Gce]2 | %75
!f! z4({d'!3!a')d'} (f2 !arpeggio!.[af']) z |"_dim." z4({g!3!e')g} (c2 !arpeggio!.[ec']) z | %77
 z4!pp!"^rall."({f!3!b)f} (A2 [Bf]2 |"^a Tempo" [ce]4-) [ce]2 z2 |!mf!{/g'} g2 z2 z4 | %80
{/e'} .e z de{/c'} .c z GA |{/e} E z"_dim." GA{/c'} .c z .e2 |{/g'} g!>(! z (.a.c' .e'2 .g'2)!>)! | %83
!pp!{/a'} a4- a2 z2 |{/b'} b4- b2 z2 |!ppp!{/c''} c'8- | c'2 z2 !fermata!z4 |] %87
V:3
!ped! [C,,G,,]4- [C,,G,,]2!ped-up! z2 |!ped! [C,,G,,]4- [C,,G,,]2!ped-up! z2 | %2
!ped! [C,,G,,]4- [C,,G,,]2!ped-up! z2 |!ped! [C,,G,,]4- [C,,G,,]2!ped-up! z2 | %4
!ped! z4 !arpeggio!.[G,CEG]2!ped-up! .[G,CE]2 |!ped! z4 !arpeggio!.[G,CEG]2!ped-up! .[G,CE]2 | %6
!ped! z4 !arpeggio!.[G,CEG]2!ped-up! .[G,CE]2 |!ped! z4 !arpeggio!.[G,B,FG]2!ped-up! .[G,B,F]2 | %8
"_una corda"!ped! z4 !arpeggio!.[G,B,FG]2!ped-up! .[G,B,F]2 | %9
!ped! z4 !arpeggio!.[G,B,FG]2!ped-up! .[G,B,F]2 |!ped! z4 !arpeggio!.[G,B,FG]2!ped-up! .[G,B,F]2 | %11
!ped! z4 !arpeggio!.[G,CEG]2!ped-up! .[G,CE]2 |!ped! z4 !arpeggio!.[G,CEG]2!ped-up! .[G,CE]2 | %13
!ped! z4 !arpeggio!.[G,CEG]2!ped-up! .[G,CE]2 |!ped! z4 !arpeggio!.[G,CEG]2!ped-up! .[G,CE]2 | %15
!ped! z4 !arpeggio!.[A,^CEG]2!ped-up! .[A,CE]2 |!ped! D,,4- D,,2!ped-up! z2 | %17
!ped! z4 !arpeggio!.[G,CEG]2!ped-up! .[G,CE] z |!ped! z4 !arpeggio!.[G,DF]2!ped-up! .[G,D] z | %19
!ped! z4 !arpeggio!.[G,CEG]2!ped-up! .[G,CE]2 |"_una corda"!ped! D,,4- D,,2!ped-up! z2 | %21
!ped! z4 (!arpeggio!.[G,CEG]2!ped-up! .[G,CE]) z |!ped! z4 !arpeggio!.[G,DF]2!ped-up! .[G,D]2 | %23
!ped! z4 !arpeggio!.[G,CEG]2!ped-up! .[G,CE]2 | %24
!ped! z4 !arpeggio!.[G,CEG]2!ped-up!!ped! .[G,CE]2!ped-up! | %25
!ped! z4 !arpeggio!.[G,CEG]2!ped-up!!ped! .[G,CE]2!ped-up! | %26
!ped! z4 !arpeggio!.[G,CEG]2!ped-up!!ped! .[G,CE]2!ped-up! | %27
!ped! z4 !arpeggio!.[G,B,DG]2!ped-up!!ped! .[G,B,DF]2!ped-up! | %28
!ped! z4 !arpeggio!.[G,B,DG]2!ped-up!!ped! .[G,B,DF]2!ped-up! | %29
!ped! z4 !arpeggio!.[G,B,DG]2!ped-up!!ped! .[G,B,DF]2!ped-up! | %30
!ped! z4 !arpeggio!.[G,B,DG]2!ped-up!!ped! .[G,B,DF]2!ped-up! | %31
!ped! z4 !arpeggio!.[G,CEG]2!ped-up!!ped! .[G,CE]2!ped-up! | %32
!ped! _F,,4- F,,2!ped-up!!ped! z2!ped-up! |!ped! ^F,,4- F,,2!ped-up!!ped! z2!ped-up! | %34
!ped! E,,4- E,,2!ped-up!!ped! z2!ped-up! |!ped! A,,4- A,,2!ped-up!!ped! z2!ped-up! | %36
!ped! z4 !arpeggio!.[A,DFA]2!ped-up!!ped! .[A,DF]2!ped-up! | %37
!ped! z4 !arpeggio!.[G,CEG]2!ped-up!!ped! .[G,CE]2!ped-up! | %38
!ped! z4 !arpeggio!.[G,DG]2!ped-up!!ped! .[G,DF]2!ped-up! | %39
!ped! z4 !arpeggio!.[G,CEG]2!ped-up!!ped! .[G,CE]2!ped-up! | %40
!ped! z4 !arpeggio!.[G,B,F]2!ped-up! .[G,B,D]2 |!ped! z4 G2!ped-up! z2 | %42
!ped! z4 !arpeggio!.[B,^DA]2!ped-up! .[B,D^F]2 |!ped! z4 !^!B2!ped-up! z2 | %44
!ped! [D,,D,]4- [D,,D,]2!ped-up! z2 |!ped! [D,,D,]4- [D,,D,]2!ped-up! z2 | %46
!ped! [A,,A,]2- [A,,A,]!ped-up! z[K:treble] !arpeggio!.[DAc]2 .[DGB]2 | %47
[K:bass]!ped! z4 !arpeggio!.[G,DF]2!ped-up! .[G,DG]2 | %48
!ped! z4 !arpeggio!.[G,B,F]2!ped-up! .[G,B,D]2 |!ped! z4 !^!G2!ped-up! z2 | %50
!ped! z4 !arpeggio!.[B,^DA]2!ped-up! .[B,D^F]2 |!ped! z4 !^!B2!ped-up! z2 | %52
!ped! [D,,D,]4- [D,,D,]2!ped-up! z2 |!ped! [G,,D,]4- [G,,D,]2!ped-up! z2 | %54
!ped! G,,4- G,,2!ped-up! z2 |!ped! G,,4- G,,2!ped-up! z2 |!ped! G,,4- G,,2!ped-up! z2 | %57
!ped! G,,4- G,,2!ped-up! z2 | %58
"_una corda"!ped! z4 !arpeggio!.[G,DF]!ped-up! z[K:treble] !arpeggio!.[Gdf] z | %59
[K:bass]!ped! z4 !arpeggio!.[G,CEG]2!ped-up! .[G,CE]2 | %60
!ped! z4 !arpeggio!.[G,CEG]2!ped-up! .[G,CE]2 |!ped! z4 !arpeggio!.[G,CEG]2!ped-up! .[G,CE]2 | %62
!ped! z4 !arpeggio!.[G,B,FG]2!ped-up! .[G,B,F]2 |!ped! z4 !arpeggio!.[G,B,FG]2!ped-up! .[G,B,F]2 | %64
!ped! z4 !arpeggio!.[G,B,FG]2!ped-up! .[G,B,F]2 |!ped! z4 !arpeggio!.[G,B,FG]2!ped-up! .[G,B,F]2 | %66
!ped! z4 !arpeggio!.[G,CEG]2!ped-up! .[G,CE]2 |!ped! [_F,,_C,]4- [F,,C,]2!ped-up! z2 | %68
!ped! [_G,,_G,]4- [G,,G,]2!ped-up! z2 |!ped! [=E,,=E,]4- [E,,E,]2!ped-up! z2 | %70
!ped! z4 !arpeggio!.[CEAc]2!ped-up!!ped! .[CEA]2!ped-up! | %71
!ped! z4 !arpeggio!.[A,DFA]2!ped-up! .[A,DF] z |!ped! z4 !arpeggio!.[G,CEG]2!ped-up! .[G,CE] z | %73
!ped! z4 !arpeggio!.[G,DF]2!ped-up! .[G,D]2 |!ped! z4 !arpeggio!.[G,CE]2!ped-up! .[G,C]2 | %75
!ped! z4 !arpeggio!.[A,DFA]2!ped-up! .[A,DF] z |!ped! z4 !arpeggio!.[G,CEG]2!ped-up! .[G,CE] z | %77
!ped! z4 !arpeggio!.[G,DF]2!ped-up! .[G,D]2 |!ped! z4 !arpeggio!.[G,CEG]2 .[G,CE]2!ped-up! | %79
!ped! z4 !arpeggio!.[G,CEG]2!ped-up! .[G,CE]2 |!ped! z4 !arpeggio!.[G,CEG]2!ped-up! .[G,CE]2 | %81
!ped! [C,,G,,]2 z2!ped-up!!ped! [G,CEG]2 z2!ped-up! | %82
[K:treble]!ped! !arpeggio![Gce] z!ped-up! (.A.c .e2 .g2) | %83
"_una corda"!ped! !arpeggio![DFc]4- [DFc]2!ped-up! z2 | %84
[K:bass]!ped! !arpeggio![G,DFG]4- [G,DFG]2!ped-up! z2 |!ped!{/[C,,G,,]} [G,CEG]8- | %86
 [G,CEG]2!ped-up! z2 !fermata!z4 |] %87
V:4
 x8 | x8 | x8 | x8 | [C,,G,,]4- [C,,G,,]2 z2 | [C,,G,,]4- [C,,G,,]2 z2 | [C,,G,,]4- [C,,G,,]2 z2 | %7
 [D,,D,]4- [D,,D,]2 z2 | [G,,,G,,]4- [G,,,G,,]2 z2 | [G,,,G,,]4- [G,,,G,,]2 z2 | %10
 [G,,,G,,]4- [G,,,G,,]2 z2 | [C,,G,,]4- [C,,G,,]2 z2 | [C,,G,,]4- [C,,G,,]2 z2 | %13
 [C,,G,,]4- [C,,G,,]2 z2 | [C,,G,,]4- [C,,G,,]2 z2 | [A,,,A,,]4- [A,,,A,,]2 z2 | x8 | %17
 G,,4- G,,2 z2 | G,,,4- G,,,2 z2 | [C,,G,,]4- [C,,G,,]2 z2 | x8 | G,,4- G,,2 z2 | G,,,4- G,,,2 z2 | %23
 [C,,G,,]4- [C,,G,,]2 z2 | [C,,G,,]4- [C,,G,,]2 z2 | [C,,G,,]4- [C,,G,,]2 z2 | %26
 [C,,G,,]4- [C,,G,,]2 z2 | [D,,D,]4- [D,,D,]2 z2 | [G,,,G,,]4- [G,,,G,,]2 z2 | %29
 [G,,,G,,]4- [G,,,G,,]2 z2 | [G,,,G,,]4- [G,,,G,,]2 z2 | [C,,G,,]4- [C,,G,,]2 z2 | x8 | x8 | x8 | %35
 x8 | D,,4- D,,2 z2 | G,,4- G,,2 z2 | G,,,4- G,,,2 z2 | [C,,G,,]4- [C,,G,,]2 z2 | %40
 [G,,,G,,]4- [G,,,G,,]2 z2 | [C,,G,,]4- [C,,G,,]2 z2 | [B,,,B,,]4- [B,,,B,,]2 z2 | %43
 [E,,B,,]4- [E,,B,,]2 z2 | x8 | x8 | x4[K:treble] x4 |[K:bass] [G,,,G,,]4- [G,,,G,,]2 z2 | %48
 [G,,,G,,]4- [G,,,G,,]2 z2 | [C,,G,,]4- [C,,G,,]2 z2 | [B,,,B,,]4- [B,,,B,,]2 z2 | %51
 [E,,B,,]4- [E,,B,,]2 z2 | x8 | x8 | x8 | x8 | x8 | x8 | G,,4- G,,2[K:treble] z2 | %59
[K:bass] [C,,G,,]4- [C,,G,,]2 z2 | [C,,G,,]4- [C,,G,,]2 z2 | [C,,G,,]4- [C,,G,,]2 z2 | %62
 [D,,D,]4- [D,,D,]2 z2 | [G,,,G,,]4- [G,,,G,,]2 z2 | [G,,,G,,]4- [G,,,G,,]2 z2 | %65
 [G,,,G,,]4- [G,,,G,,]2 z2 | [C,,G,,]4- [C,,G,,]2 z2 | x8 | x8 | x8 | [A,,,A,,]4- [A,,,A,,]2 z2 | %71
 [D,,D,]4- [D,,D,]2 z2 | G,,4- G,,2 z2 | G,,,4- G,,,2 z2 | [C,,G,,]4- [C,,G,,]2 z2 | %75
 [D,,D,]4- [D,,D,]2 z2 | G,,4- G,,2 z2 | G,,,4- G,,,2 z2 | [C,,G,,]4- [C,,G,,]2 z2 | %79
 [C,,G,,]4- [C,,G,,]2 z2 | [C,,G,,]4- [C,,G,,]2 z2 | x8 |[K:treble] x8 | x8 |[K:bass] x8 | x8 | %86
 x8 |] %87
V:5
 x8 | x8 | x8 | x8 | x8 | x8 | x8 | x8 | x8 | x8 | x8 | x8 | x8 | x8 | x8 | x8 | %16
 x4 !arpeggio![D^Fc]2 .[DA] z | x8 | x8 | x8 | x4 !arpeggio![D^Fc]2 [DA] x | x8 | x8 | x8 | x8 | %25
 x8 | x8 | x8 | x4!8va(! x4!8va)! |!8va(! x8 | x8 | x8!8va)! | x4 !arpeggio!.[_C_F_A]2 .[CFA]2 | %33
 x4 !arpeggio!.[B,^D=A]2 .[B,^F]2 | x4 !arpeggio!.[B,E^GB]2 .[B,EG]2 | %35
 x4 !arpeggio!.[CEAc]2 .[CEA]2 | x8 | x8 | x8 | x8 | x8 | x8 | x8 | x8 | %44
!8va(! z4 !arpeggio!.[d^fac']2 .[dfa]2 | z4 !arpeggio!.[dgbd']2 .[dgb]2 | x8 | x8!8va)! | x8 | x8 | %50
 x8 | x8 |!8va(! z4 !arpeggio!.[d^fac']2 .[dfa]2 | z4 !arpeggio![dgbd']2 [dgb]!8va)! z | %54
 x4 !arpeggio!.[_E^FA] x !arpeggio!.[CEFA] x | x4 !arpeggio!.[DF_AB] x !arpeggio!.[B,DFA] x | %56
 x4 !arpeggio!.[C_E^FA] x !arpeggio!.[A,CEF] x | x4 !arpeggio!.[B,DFG] x !arpeggio!.[G,B,DF] x | %58
 x8 | x8 | x8 | x8 | x8 | x8 | x8 | x8 | x8 | z4 x2 x2 | z4 x2 x2 | z4 x2 x2 | x8 | x8 | x8 | x8 | %74
 x8 | x8 | x8 | x8 | x8 | x8 | x8 | x8 | x8 | x8 | x8 | x8 | x8 |] %87
V:6
 x8 | x8 | x8 | x8 | x8 | x8 | x8 | x8 | x8 | x8 | x8 | x8 | x8 | x8 | x8 | x8 | x8 | x8 | x8 | %19
 x8 | x8 | x8 | x8 | x8 | x8 | x8 | x8 | x8 | x8 | x8 | x8 | x8 | x8 | x8 | x8 | x8 | x8 | x8 | %38
 x8 | x8 | x8 | z4 !arpeggio!.[G,CE]2 [G,CE]2 | x8 | x8 | x8 | x8 | x4[K:treble] x4 |[K:bass] x8 | %48
 x8 | z4 !arpeggio!.[G,CE]2 [G,CE]2 | x8 | z4 !arpeggio![B,EG]2 [B,EG]2 | x8 | x8 | x8 | x8 | x8 | %57
 x8 | x6[K:treble] x2 |[K:bass] x8 | x8 | x8 | x8 | x8 | x8 | x8 | x8 | x8 | x8 | x8 | x8 | z4 x4 | %72
 z4 x4 | z4 x4 | z4 x4 | z4 x4 | z4 x4 | z4 x4 | x8 | x8 | x8 | x8 |[K:treble] x8 | x8 | %84
[K:bass] x8 | x8 | x8 |] %87
V:7
 x8 | x8 | x8 | x8 | x8 | x8 | x8 | x8 | x8 | x8 | x8 | x8 | x8 | x8 | x8 | x8 | x8 | x8 | x8 | %19
 x8 | x8 | x8 | x8 | x8 | x8 | x8 | x8 | x8 | x8 | x8 | x8 | x8 | x8 | x8 | x8 | x8 | x8 | x8 | %38
 x8 | x8 | x8 | x8 | x8 | x4 !arpeggio!.[B,EG]2 [B,EG]2 | x8 | x8 | x4[K:treble] x4 |[K:bass] x8 | %48
 x8 | x8 | x8 | x8 | x8 | x8 | x8 | x8 | x8 | x8 | x6[K:treble] x2 |[K:bass] x8 | x8 | x8 | x8 | %63
 x8 | x8 | x8 | x8 | x8 | x8 | x8 | x8 | x8 | x8 | x8 | x8 | x8 | x8 | x8 | x8 | x8 | x8 | x8 | %82
[K:treble] x8 | x8 |[K:bass] x8 | x8 | x8 |] %87
V:8
 x8 | x8 | x8 | x8 | x8 | x8 | x8 | x8 | x8 | x8 | x8 | x8 | x8 | x8 | x8 | x8 | x8 | x8 | x8 | %19
 x8 | x8 | x8 | x8 | x8 | x8 | x8 | x8 | x8 | x4!8va(! x4!8va)! |!8va(! x8 | x8 | x8!8va)! | x8 | %33
 x8 | x8 | x8 | x8 | x8 | x8 | x8 | x8 | x8 | x8 | x8 |!8va(! x8 | x8 | x8 | x8!8va)! | x8 | x8 | %50
 x8 | x8 |!8va(! x8 | x7!8va)! x | x8 | x8 | x8 | x8 | x8 | x8 | x8 | x8 | x8 | x8 | x8 | x8 | x8 | %67
 x4 !arpeggio!.[_C_F_A_c]2 .[CFA]2 | x4 !arpeggio!.[_C_E_c]2 .[CE_B]2 | %69
 x4 !arpeggio!.[=E^G=d]2 .[EGB]2 | x8 | x8 | x8 | x8 | x8 | x8 | x8 | x8 | x8 | x8 | x8 | x8 | x8 | %83
 x8 | x8 | x8 | x8 |] %87

